svg/fluentui-system-icons/ic_fluent_grid_24_regular.svg

<svg width="24" height="24" viewBox="0 0 24 24" fill="none" xmlns="http://www.w3.org/2000/svg">
<path d="M8.75 13C9.99264 13 11 14.0074 11 15.25V18.75C11 19.9926 9.99264 21 8.75 21H5.25C4.00736 21 3 19.9926 3 18.75V15.25C3 14.0074 4.00736 13 5.25 13H8.75ZM18.75 13C19.9926 13 21 14.0074 21 15.25V18.75C21 19.9926 19.9926 21 18.75 21H15.25C14.0074 21 13 19.9926 13 18.75V15.25C13 14.0074 14.0074 13 15.25 13H18.75ZM8.75 14.5H5.25C4.83579 14.5 4.5 14.8358 4.5 15.25V18.75C4.5 19.1642 4.83579 19.5 5.25 19.5H8.75C9.16421 19.5 9.5 19.1642 9.5 18.75V15.25C9.5 14.8358 9.16421 14.5 8.75 14.5ZM18.75 14.5H15.25C14.8358 14.5 14.5 14.8358 14.5 15.25V18.75C14.5 19.1642 14.8358 19.5 15.25 19.5H18.75C19.1642 19.5 19.5 19.1642 19.5 18.75V15.25C19.5 14.8358 19.1642 14.5 18.75 14.5ZM8.75 3C9.99264 3 11 4.00736 11 5.25V8.75C11 9.99264 9.99264 11 8.75 11H5.25C4.00736 11 3 9.99264 3 8.75V5.25C3 4.00736 4.00736 3 5.25 3H8.75ZM18.75 3C19.9926 3 21 4.00736 21 5.25V8.75C21 9.99264 19.9926 11 18.75 11H15.25C14.0074 11 13 9.99264 13 8.75V5.25C13 4.00736 14.0074 3 15.25 3H18.75ZM8.75 4.5H5.25C4.83579 4.5 4.5 4.83579 4.5 5.25V8.75C4.5 9.16421 4.83579 9.5 5.25 9.5H8.75C9.16421 9.5 9.5 9.16421 9.5 8.75V5.25C9.5 4.83579 9.16421 4.5 8.75 4.5ZM18.75 4.5H15.25C14.8358 4.5 14.5 4.83579 14.5 5.25V8.75C14.5 9.16421 14.8358 9.5 15.25 9.5H18.75C19.1642 9.5 19.5 9.16421 19.5 8.75V5.25C19.5 4.83579 19.1642 4.5 18.75 4.5Z" fill="#212121"/>
</svg>

<svg xmlns="http://www.w3.org/2000/svg" width="24" height="24"><path d="M8.75 13A2.25 2.25 0 0 1 11 15.25v3.5A2.25 2.25 0 0 1 8.75 21h-3.5A2.25 2.25 0 0 1 3 18.75v-3.5A2.25 2.25 0 0 1 5.25 13h3.5Zm10 0A2.25 2.25 0 0 1 21 15.25v3.5A2.25 2.25 0 0 1 18.75 21h-3.5A2.25 2.25 0 0 1 13 18.75v-3.5A2.25 2.25 0 0 1 15.25 13h3.5Zm-10 1.5h-3.5a.75.75 0 0 0-.75.75v3.5c0 .414.336.75.75.75h3.5a.75.75 0 0 0 .75-.75v-3.5a.75.75 0 0 0-.75-.75Zm10 0h-3.5a.75.75 0 0 0-.75.75v3.5c0 .414.336.75.75.75h3.5a.75.75 0 0 0 .75-.75v-3.5a.75.75 0 0 0-.75-.75ZM8.75 3A2.25 2.25 0 0 1 11 5.25v3.5A2.25 2.25 0 0 1 8.75 11h-3.5A2.25 2.25 0 0 1 3 8.75v-3.5A2.25 2.25 0 0 1 5.25 3h3.5Zm10 0A2.25 2.25 0 0 1 21 5.25v3.5A2.25 2.25 0 0 1 18.75 11h-3.5A2.25 2.25 0 0 1 13 8.75v-3.5A2.25 2.25 0 0 1 15.25 3h3.5Zm-10 1.5h-3.5a.75.75 0 0 0-.75.75v3.5c0 .414.336.75.75.75h3.5a.75.75 0 0 0 .75-.75v-3.5a.75.75 0 0 0-.75-.75Zm10 0h-3.5a.75.75 0 0 0-.75.75v3.5c0 .414.336.75.75.75h3.5a.75.75 0 0 0 .75-.75v-3.5a.75.75 0 0 0-.75-.75Z"/></svg>
